X: 141
T: At the Wind Center I Stand
C: Teton Sioux band 1911-1914
N: Derived from sioux137.krn
O: South Dakota, U.S.A.
N: Teton Sioux Music by Frances Densmore, 1918
Z: transcribed to **kern format by Craig Sapp
L: 1/8
M: 3/4
Q: 1/4=58
K: C clef=bass
%%linebreak <none>
E2E3D [I:setbarnb 2]| 
(3E D EC4 | 
(3A, A, DC3A, | 
(3C A, CG,2G,2 ||  
[M:2/4]G, G,E,2 | 
E,2G,2 ||  
[M:3/4](3C A, CG,4 ||  
[M:2/4]G,< G, E,/ E,3/ | 
E, E,E,2 ||  
[M:3/4]E,4-E,3/ E,/ ||  
[M:2/4]E,3E, | 
E E E E | 
D D E D | 
C4 | 
(3C C CA,2- | 
A,2A,2 ||  
[M:3/4]D2D D (D C) ||  
[M:2/4]A, A,/ A,/ C A, | 
G,4 | 
(3G, G, G,E,2 | 
E,2G, G, ||  
[M:3/4]A, CA,2G, G, ||  
[M:2/4]A, CG,2 | 
E, E, E, E, ||  
[M:3/4]G, E,E,4 | 
E,6 | 
E,2z4 |]  



